X: 59
M:6/8
L:1/8
K:G
d|dBd dBd|gag "tr"f2 e|dBd dcB|AFD D2 d|
dBd dBd|gag f2 e|dcB AGF|gdc BAG|
dBd dBd|gag f2 e|dBd dcB|AFD D3|
dBd ece|fdf gfe|dcB cAd|GAG G2||

